X:2
T:Piano Postulate no. 2: ∀a(a ∈ ℕ ⇒ S(a) ∈ ℕ)
C:David Mandelberg
M:7/8
L:1/8
Q:"Allegro"
V:T clef=treble
V:B clef=bass
%%score {T B}
K:C
%%MIDI beatstring mmmmmmm
[V:T] Z |\
[V:B] C,,,,, D,,,,, E,,,,, F,,,,, G,,,,, A,,,,, B,,,,, |\
[V:T] Z |\
[V:B] C,,,, D,,,, E,,,, F,,,, G,,,, A,,,, B,,,, |\
[V:T] Z |\
[V:B] C,,, D,,, E,,, F,,, G,,, A,,, B,,, |\
[V:T] Z |\
[V:B] C,, D,, E,, F,, G,, A,, B,, |\
[V:T] Z |\
[V:B] C, D, E, F, G, A, B, |\
[V:T] C D E F G A B |\
[V:B] Z |\
[V:T] c d e f g a b |\
[V:B] Z |\
[V:T] c' d' e' f' g' a' b' |\
[V:B] Z |\
[V:T] c'' d'' e'' f'' g'' a'' b'' |\
[V:B] Z |\
[V:T] c''' d''' e''' f''' g''' a''' b''' |\
[V:B] Z |\
[V:T] c'''' d'''' e'''' f'''' g'''' z2  |]
[V:B] Z |]

